!!!COM: Fanny (Mendelssohn) Hensel
!!!CNT: Deutsch
!!!TXO: Deutsch
!!!OTL: "Gleich Merlin, dem eitlen Weisen"
!!!LYR: Heine, Heinrich
!!!OPR: 
!!!OPS: Op. 
!!!ONM: No. 
!!!ENC: Emily Thomas
!!!YOR: Hensel: 16 Songs Fanny Mendelssohn Hensel
!!!YOR: Alfred, 1995
!!!ODT: 1836/
!!NB: Vocal melody and text encoded.
**kern	**silbe
=1	=1
*clefG2	*
*k[b-]	*
*M4/4	*
*MM[Moderato]	*
2r	.
{4cc	{Gleich
4cc	Mer-
=2	=2
4e	-lin,
4e	dem
4f	eit-
4f	-len
=3	=3
4g	Wei-
4g	-sen,
4a	bin
4a	ich,
=4	=4
4d	ar-
4d	-mer
4e	Ne-
4e	-kro-
=5	=5
4f}	-mant,}
4r	.
{4f	{nun
4f	am
=6	=6
4g	En-
4g	-de
4.g	fest-
8f	-ge-
=7	=7
4e}	-bannt}
4r	.
{4g	{in
4g	den
=8	=8
[1a-	al-
=9	=9
4a-]	|
4g	-ten
4b-	Zau-
8a-	-ber-
8g	|
=10	=10
1f	-krei-
=11	=11
2g}	-sen.}
2r	.
=12	=12
2r	.
{4cc	{Fest-
4cc	-ge-
=13	=13
4f#	-bannt
4f#	zu
4g	ih-
4a	-ren
=14	=14
4a	Fu2s-
4b-	-sen
4dd	lieg
4dd	ich
=15	=15
4d}	nun,}
{8cc	{und
8b-	|
4a	im-
4g	-mer-
=16	=16
4a}	-dar}
4r	.
2r	.
=17	=17
2r	.
{4b-	{schau'
4b-	ich
=18	=18
4e	in
4e	ihr
4f	Au-
4f	-gen-
=19	=19
4g}	-paar;}
4r	.
{4cc	{und
4cc	die
=20	=20
4dd	Stun-
4cc}	-den,}
2r	.
=21	=21
2r	.
{4cc	{und
4cc	die
=22	=22
4dd	Stun-
4cc	-den,
4b-	sie
4g	ver-
=23	=23
1f	-flies-
=24	=24
1cc	|
=25	=25
4f}	-sen.}
4r	.
2r	.
=26	=26
1r	.
=27	=27
1r	.
=28	=28
1r	.
=29	=29
2r	.
{4cc	{Stun-
4cc	-den,
=30	=30
4e	Ta-
4e}	-ge,}
{4f	{gan-
4f	-ze
=31	=31
4g	Wo-
4g}	-chen,}
{4a	{sie
4a	ver-
=32	=32
4d	-flies-
4d	-sen
4e	wie
4e	ein
=33	=33
4f}	Traum,}
4r	.
{4f	was
4f	ich
=34	=34
4g	re-
4g	-de,
4.g	weiss
8f	ich
=35	=35
4e}	kaum,}
4r	.
{4g	{weiss
4g	auch
=36	=36
[1a-	nicht,
=37	=37
4a-]	|
4g	was
4b-	sie
8a-	ge-
8g	|
=38	=38
1f	-spro-
=39	=39
2g}	-chen.}
2r	.
=40	=40
2r	.
{4cc	{Manch-
4cc	-mal
=41	=41
4f#	ist
4f#	mir,
4g	als
4a	be-
=42	=42
4a	-ru2h-
4b-	-ren
4dd	ih-
4dd	-re
=43	=43
4dd	Lip-
8cc	-pen
8b-	|
4a	mei-
4g	-nen
=44	=44
4a}	Mund,}
4r	.
2r	.
=45	=45
2r	.
{4b-	{bis
4b-	in
=46	=46
4e	mei-
4e	-ner
4f	See-
4f	-le
=47	=47
4g}	Grund}
4r	.
{4cc	{kann
4cc	ich
=48	=48
4dd	spu2-
4cc}	-ren,}
2r	.
=49	=49
2r	.
{4cc	{kann
4cc	ich
=50	=50
4dd	dann
4cc	die
4b-	Flam-
4g	-men
=51	=51
1f	spu2-
=52	=52
1cc	|
=53	=53
4f}	-ren.}
4r	.
2r	.
==	==
*-	*-
